public/linkedin.svg

<svg width="91" height="92" viewBox="0 0 91 92" fill="none" xmlns="http://www.w3.org/2000/svg">
<g clip-path="url(#clip0_111_16)">
<path d="M9.4729 0H81.6882C82.3371 0.110967 82.9838 0.194914 83.6197 0.373799C85.8626 1.01947 87.8196 2.4209 89.1667 4.34565C89.9754 5.51365 90.5318 6.84156 90.7975 8.24217C90.8837 8.67771 90.8926 9.1497 91.0001 9.57538V82.415C90.8837 83.0647 90.8303 83.7096 90.6677 84.3533C90.059 86.7231 88.6273 88.7925 86.6343 90.1834C85.5559 90.9435 84.2528 91.5266 82.9606 91.78C82.5092 91.8689 82 91.8752 81.5621 92.0001H9.38003C8.94325 91.8833 8.45953 91.8581 8.01376 91.7638C6.64341 91.4853 5.34855 90.9112 4.21726 90.081C2.42507 88.7574 1.01502 86.8112 0.414887 84.6392C0.20851 83.8921 0.116005 83.1427 0 82.3795V9.53162C0.119659 9.11412 0.133722 8.61719 0.21582 8.18145C0.46858 6.87432 0.974092 5.6305 1.70337 4.52132C3.07378 2.45717 5.14392 0.971365 7.52334 0.344118C8.17214 0.175033 8.82068 0.127713 9.4729 0ZM49.1836 40.8627C49.2796 38.8863 49.1463 36.8993 49.2007 34.9208C46.7401 34.887 44.2764 34.9128 41.8154 34.9148C39.9418 34.9164 38.0619 34.8827 36.1892 34.9263C36.1499 36.287 36.178 37.6552 36.1789 39.0168L36.1838 46.2618L36.1941 68.5904L36.1968 75.4714C36.1975 76.7244 36.2348 77.9906 36.1856 79.2422C36.9534 79.1615 37.7585 79.2109 38.5317 79.2132L42.6064 79.2223L46.9116 79.2164C47.6762 79.2149 48.4715 79.1645 49.2311 79.2404C49.1548 77.5863 49.2078 75.9128 49.2048 74.2558L49.1957 64.6866L49.1944 58.3724C49.1938 56.874 49.1396 55.3601 49.3148 53.8695C49.4805 52.4591 49.8547 51.0287 50.5517 49.7878C51.3767 48.1883 52.8958 46.9894 54.5845 46.4554C56.5698 45.8274 59.1014 45.8162 60.9732 46.818C62.6683 47.7253 63.6873 49.3309 64.2305 51.1496C64.9934 53.7042 64.8479 56.4305 64.8455 59.0677L64.8426 65.0842C64.8425 69.8049 64.9032 74.5346 64.8405 79.2545C65.6154 79.1641 66.4292 79.2145 67.21 79.2152L71.332 79.2187L75.8856 79.2127C76.7069 79.2114 77.5496 79.166 78.3673 79.234C78.2971 76.751 78.3481 74.2528 78.3474 71.7682L78.3473 58.289L78.3545 53.4284C78.3637 50.721 78.3603 48.053 77.7444 45.4009C77.062 42.4631 75.6996 39.6493 73.5114 37.5589C70.4202 34.606 66.0989 33.4394 61.9254 33.5643C61.8383 33.5669 61.7537 33.5729 61.6672 33.5822C60.8161 33.6516 59.9801 33.7207 59.1412 33.89C55.7438 34.5844 52.6802 36.4244 50.4522 39.1087C49.9848 39.6641 49.5826 40.2569 49.1836 40.8627ZM20.384 12.8086C15.9324 12.9614 12.4477 16.7365 12.604 21.2369C12.7604 25.7373 16.4984 29.2559 20.9497 29.0928C25.3938 28.9298 28.8674 25.1582 28.7112 20.6651C28.5552 16.1719 24.8285 12.6559 20.384 12.8086ZM13.9318 79.2458L22.9406 79.2233L25.7082 79.2172C26.3191 79.2139 26.9402 79.1849 27.5489 79.2371C27.4729 78.5532 27.5085 77.8349 27.5087 77.1463L27.5114 73.6444L27.5118 62.2842L27.5105 44.2841L27.5095 38.3419C27.5095 37.2059 27.4791 36.0603 27.5313 34.9255L18.1495 34.9159L15.3007 34.9169C14.8551 34.9174 14.3948 34.9464 13.9509 34.9206L13.9479 63.9734L13.9506 73.9707C13.9491 75.7266 13.9814 77.4907 13.9318 79.2458Z" fill="#FCFCFF"/>
</g>
<defs>
<clipPath id="clip0_111_16">
<rect width="91" height="92" fill="white"/>
</clipPath>
</defs>
</svg>

<svg width="91" height="92" viewBox="0 0 91 92" fill="none" xmlns="http://www.w3.org/2000/svg"><g clip-path="url(#a)"><path d="M9.473 0h72.215c.65.111 1.296.195 1.932.374 2.243.645 4.2 2.047 5.547 3.972a10.2 10.2 0 0 1 1.63 3.896c.087.436.096.908.203 1.333v72.84c-.116.65-.17 1.295-.332 1.938a10.2 10.2 0 0 1-4.034 5.83c-1.078.76-2.381 1.344-3.673 1.597-.452.089-.961.095-1.399.22H9.38c-.437-.117-.92-.142-1.366-.236a9.7 9.7 0 0 1-3.797-1.683c-1.792-1.324-3.202-3.27-3.802-5.442-.206-.747-.299-1.496-.415-2.26V9.532c.12-.418.134-.915.216-1.35a10.2 10.2 0 0 1 1.487-3.66A10.07 10.07 0 0 1 7.523.343C8.173.175 8.821.128 9.473 0m39.71 40.863c.097-1.977-.037-3.964.018-5.942-2.46-.034-4.925-.008-7.386-.006-1.873.001-3.753-.032-5.626.011-.04 1.361-.011 2.73-.01 4.09l.005 7.246.01 22.328.003 6.881c0 1.253.038 2.52-.011 3.771.767-.08 1.572-.031 2.346-.029l4.074.01 4.306-.007c.764-.001 1.56-.051 2.32.024-.077-1.654-.024-3.327-.027-4.984l-.01-9.57v-6.314c-.001-1.498-.055-3.012.12-4.502.166-1.41.54-2.841 1.237-4.082.825-1.6 2.344-2.799 4.032-3.333 1.986-.628 4.517-.639 6.39.363 1.694.907 2.713 2.513 3.257 4.332.762 2.554.617 5.28.615 7.918l-.003 6.016c0 4.72.06 9.45-.002 14.17.774-.09 1.588-.04 2.369-.039l4.122.004 4.554-.006c.82-.002 1.664-.047 2.481.021-.07-2.483-.019-4.981-.02-7.466V58.29l.008-4.86c.009-2.708.005-5.376-.61-8.028-.683-2.938-2.045-5.752-4.234-7.842-3.09-2.953-7.412-4.12-11.586-3.995a3 3 0 0 0-.258.018c-.85.07-1.687.139-2.526.308a15.27 15.27 0 0 0-8.689 5.219c-.467.555-.87 1.148-1.268 1.754M20.385 12.809c-4.452.152-7.936 3.928-7.78 8.428s3.894 8.019 8.346 7.856c4.444-.163 7.917-3.935 7.761-8.428s-3.883-8.01-8.327-7.856m-6.452 66.437 9.009-.023 2.767-.006c.611-.003 1.232-.032 1.84.02-.075-.684-.04-1.402-.04-2.09l.003-3.503v-29.36l-.002-5.942c0-1.136-.03-2.282.022-3.416l-9.381-.01H15.3c-.445.001-.905.03-1.35.005l-.002 29.052.003 9.998c-.002 1.756.03 3.52-.02 5.275" fill="#FCFCFF"/></g><defs><clipPath id="a"><path fill="#fff" d="M0 0h91v92H0z"/></clipPath></defs></svg>
